X:513
T:B513-  Where's My Shepherd
Q:1/4=120
L:1/4
M:6/4
K:C
e2(d/c/) (e/f/)ge|d2BGcG|A2G/F/f3/2e/d|B2cd3/2e/f|\
e2(d/c/) (e/f/)ge|d(Ac)(BG)B|A3/2G/Ff3/2e/d|d2cc3||\
d2edBG|cBcA3/2d/e|f2e^c2(B/A/)|d2ef2a|\
e2fgec|Adefga|g2fe/f/gc|c2Bc3|]
